static/img/noun-developer-7187679.svg

<svg width="99" height="99" viewBox="0 0 99 99" fill="none" xmlns="http://www.w3.org/2000/svg">
<path d="M11.7059 87.3593C11.7601 87.367 11.8065 87.3902 11.8606 87.3902H40.814C40.814 87.3902 40.8256 87.3941 40.8295 87.3941H85.2986C85.9792 87.3941 86.5787 86.9494 86.7759 86.2997L95.8368 56.6929C95.9799 56.2249 95.891 55.7145 95.6009 55.32C95.3109 54.9255 94.8507 54.6935 94.3557 54.6935H56.3339C53.6462 48.2507 47.3315 43.9924 40.2769 43.9924H20.4769C10.8904 43.9924 3.09088 51.7964 3.09088 61.395V78.6268C3.09088 78.6809 3.11795 78.7273 3.12182 78.7814C3.42732 83.3757 7.105 87.0537 11.7035 87.359L11.7059 87.3593ZM84.1541 84.3004H42.9223L51.0357 57.7873H92.2675L84.1541 84.3004ZM6.18751 61.3951C6.18751 53.506 12.5993 47.0863 20.4815 47.0863H40.2815C45.6375 47.0863 50.4793 50.0679 52.9304 54.693H49.8907C49.2101 54.693 48.6107 55.1377 48.4135 55.7874L39.6891 84.2962H36.0462C37.1832 82.8575 37.7865 81.125 37.6859 79.3152C37.5854 77.4319 36.7926 75.6607 35.4546 74.3188C34.0044 72.8725 32.0824 72.0758 30.0366 72.0758H19.7736V63.0965C19.7736 62.2419 19.0814 61.5497 18.2267 61.5497C17.3721 61.5497 16.6799 62.2419 16.6799 63.0965V72.4124C16.6799 73.9323 17.9174 75.1698 19.4372 75.1698H30.0335C31.2517 75.1698 32.4002 75.6454 33.2665 76.5078C34.0631 77.3045 34.5349 78.3641 34.5968 79.4856C34.6587 80.669 34.2256 81.8213 33.3671 82.7263C32.4234 83.724 31.0932 84.2963 29.7242 84.2963L12.3216 84.3002C8.93781 84.3002 6.18825 81.5467 6.18825 78.1668L6.18751 61.3951Z" fill="#88D098"/>
<path d="M30.3839 11.6094C21.9343 11.6094 15.062 18.4814 15.062 26.9313C15.062 35.3817 21.934 42.2532 30.3839 42.2532C38.8338 42.2532 45.7058 35.3812 45.7058 26.9313C45.7058 18.4808 38.8338 11.6094 30.3839 11.6094ZM30.3839 39.1594C23.6395 39.1594 18.1558 33.6757 18.1558 26.9313C18.1558 20.1868 23.6395 14.7031 30.3839 14.7031C37.1286 14.7031 42.6121 20.1868 42.6121 26.9313C42.6121 33.6757 37.1284 39.1594 30.3839 39.1594Z" fill="#88D098"/>
<path d="M64.9919 23.9036C64.3886 23.3004 63.4102 23.3004 62.8031 23.9036L55.6333 31.0734C55.03 31.6767 55.03 32.6551 55.6333 33.2622L62.8031 40.4319C63.1047 40.7336 63.4991 40.8844 63.8975 40.8844C64.2919 40.8844 64.6903 40.7336 64.9919 40.4319C65.5952 39.8287 65.5952 38.8502 64.9919 38.2431L58.9166 32.1677L64.9919 26.0924C65.5952 25.4891 65.5952 24.5107 64.9919 23.9036L64.9919 23.9036Z" fill="#88D098"/>
<path d="M80.0357 40.4275C80.3374 40.7292 80.7318 40.88 81.1302 40.88C81.5246 40.88 81.9229 40.7292 82.2246 40.4275L89.3944 33.2578C89.9976 32.6545 89.9976 31.6761 89.3944 31.069L82.2246 23.8992C81.6213 23.296 80.6429 23.296 80.0358 23.8992C79.4325 24.5025 79.4325 25.4809 80.0358 26.088L86.1112 32.1634L80.0358 38.2388C79.4325 38.8421 79.4325 39.8205 80.0358 40.4276L80.0357 40.4275Z" fill="#88D098"/>
<path d="M76.4231 23.5901C75.6458 23.2343 74.7293 23.5785 74.3734 24.3558L67.8379 38.6951C67.4821 39.4724 67.8263 40.3889 68.6036 40.7447C68.8124 40.8375 69.029 40.8839 69.2455 40.8839C69.8333 40.8839 70.3941 40.5475 70.6531 39.979L77.1887 25.6397C77.5445 24.8624 77.2004 23.9459 76.4231 23.5901Z" fill="#88D098"/>
</svg>

<svg xmlns="http://www.w3.org/2000/svg" width="99" height="99" fill="none" viewBox="0 0 99 99"><path fill="#88D098" d="M11.706 87.36c.054.007.1.03.155.03h28.953l.016.004h44.469c.68 0 1.28-.445 1.477-1.094l9.06-29.607a1.56 1.56 0 0 0-.235-1.373 1.54 1.54 0 0 0-1.245-.626H56.334a17.41 17.41 0 0 0-16.057-10.702h-19.8c-9.587 0-17.386 7.804-17.386 17.403v17.232c0 .054.027.1.03.154a9.225 9.225 0 0 0 8.583 8.578zm72.448-3.06H42.922l8.114-26.513h41.232zM6.188 61.395c0-7.889 6.411-14.309 14.294-14.309h19.8a14.32 14.32 0 0 1 12.648 7.607h-3.04c-.68 0-1.28.445-1.477 1.094l-8.724 28.51h-3.643c1.137-1.44 1.74-3.172 1.64-4.982a7.64 7.64 0 0 0-2.231-4.996 7.62 7.62 0 0 0-5.418-2.243H19.774v-8.98a1.546 1.546 0 1 0-3.094 0v9.316a2.76 2.76 0 0 0 2.757 2.758h10.596a4.565 4.565 0 0 1 4.563 4.316c.063 1.183-.37 2.335-1.229 3.24a5.04 5.04 0 0 1-3.643 1.57l-17.402.004a6.14 6.14 0 0 1-6.134-6.133zM30.384 11.61c-8.45 0-15.322 6.871-15.322 15.321s6.872 15.322 15.322 15.322 15.322-6.872 15.322-15.322S38.834 11.61 30.384 11.61m0 27.55c-6.744 0-12.228-5.484-12.228-12.229s5.484-12.228 12.228-12.228c6.745 0 12.228 5.484 12.228 12.228 0 6.745-5.484 12.228-12.228 12.228m34.608-15.255a1.55 1.55 0 0 0-2.189 0l-7.17 7.17a1.55 1.55 0 0 0 0 2.188l7.17 7.17a1.546 1.546 0 1 0 2.189-2.189l-6.075-6.075 6.075-6.076a1.55 1.55 0 0 0 0-2.188m15.044 16.524a1.546 1.546 0 0 0 2.189 0l7.17-7.17a1.55 1.55 0 0 0 0-2.189l-7.17-7.17a1.55 1.55 0 0 0-2.19 0 1.55 1.55 0 0 0 0 2.189l6.076 6.075-6.075 6.076a1.55 1.55 0 0 0 0 2.189M76.423 23.59a1.547 1.547 0 0 0-2.05.766l-6.535 14.34a1.547 1.547 0 1 0 2.815 1.283l6.536-14.34a1.547 1.547 0 0 0-.766-2.049"/></svg>
